X:1
%
T:Jupon Rouge [2], La
M:6/8
L:1/8
R:Country Dance
B:Samuel, Peter & Ann Thompson - Compleat Collecton of 200 Favourite Country Dances, vol. 5 (1788, No. 144, p. 72)
Z:AK/Fiddler's Companion
K:D
A|A2d FED|[A,2E2][A,E] [A.2E2][A,F]|G2F EDE|D3 A,DF|
A2d FED||[A,2E2][A,E] [A.2E2][A,F]|G2F EDE|D3-D2:|
|:A|A2d fed|ecA A2A|e2f gfe|afd d2A|
B2B gec|daf d2A|B2B gec|d3 D2:|]

